X: 1
T: The Fisherman's Island
R: reel
M: 4/4
L: 1/8
K: Dmaj
D2 FA d2 cA | BAGB AFDF | GEFD EFGA | (3Bcd ed cAAg |
fd ~d2 edcA | BcdB AGFD | EFGA (3Bcd ed |1 cAGE FDCE :|2 cAGE D2 z2 ||
|: fd ~d2 AF ~F2 | DFAd fdef | ge~e2 bece | dfed cAGE |
DF~F2 AddA | B2gf edcB | Adfa gbed |1 cAGE D2 z2 :|2 cAGE FDCE ||


Tune 181	Setting 29553

